!!!COM: Bach, Johann Sebastian
!!!OTL: 258. Meine Augen schliess' ich jetzt
!!!ONM: No. 258
!!!OCL: Erk
!!!SCA: BWV 378
!!!YOE: Riemenschneider, Albert
!!!OPR: 371 Harmonized Chorales and 69 Chorale Melodies with Figured Bass
!!!OPT: Bach Chorale Harmonizations
**harm	**root	**kern	**kern	**kern	**kern
!	!	!bass	!tenor	!alto	!sprno
*Iorgan	*Iorgan	*Iorgan	*Iorgan	*Iorgan	*Iorgan
*k[b-e-a-d-]	*k[b-e-a-d-]	*k[b-e-a-d-]	*k[b-e-a-d-]	*k[b-e-a-d-]	*k[b-e-a-d-]
*A-:	*A-:	*A-:	*A-:	*A-:	*A-:
*met(c)	*met(c)	*met(c)	*met(c)	*met(c)	*met(c)
*M4/4	*M4/4	*M4/4	*M4/4	*M4/4	*M4/4
*MM60	*MM60	*MM60	*MM60	*MM60	*MM60
I	4GG	8AA-	8c	4e-	4a-
.	.	8BB-	8B-	.	.
=1	=1	=1	=1	=1	=1
Ib	4GG	8C	4A-	4e-	4a-
.	.	8D-	.	.	.
V	4DD	8E-	4G	4B-	4e-
.	.	8D-	.	.	.
Ib	4GG	4C	4A-	4e-	4a-
viiob	4FF#	4BB-	4d-	8f	4b-
.	.	.	.	8g	.
=2	=2	=2	=2	=2	=2
I;	2.GG;	2AA-;	2e-;	2a-;	2cc;
.	.	4r	4r	4r	4r
Ib	4GG	4C	4e-	[4a-	4ee-
=3	=3	=3	=3	=3	=3
IV	4CC	4.D-	4d-	8a-]	4ff
.	.	.	.	8g	.
Ib	4GG	.	4e-	[4a-	4ee-
.	.	8C	.	.	.
ii7	4AA	4BB-	8f	8a-]	4.dd-
.	.	.	16e-	16g	.
.	.	.	16d-	16f	.
V	4DD	4EE-	4e-	4g	.
.	.	.	.	.	8ee-
=4	=4	=4	=4	=4	=4
I;	2GG;	2AA-;	2e-;	2a-;	2cc;
r	4r	4r	4r	4r	4r
I	4GG	4AA-	4c	[4a-	4ee-
=5	=5	=5	=5	=5	=5
viiob	4FF#	4BB-	4d-	8a-]	4dd-
.	.	.	.	8g	.
Ib	4GG	8C	4e-	[4a-	4cc
.	.	8D-	.	.	.
V	4DD	4E-	[4e-	8a-]	4b-
.	.	.	.	8g	.
viiob/V	4CC#	4F	8e-]	8a-	4a-
.	.	.	8d	8A-	.
=6	=6	=6	=6	=6	=6
V;	2DD;	2E-;	2g;	2e-;	2b-;
r	4r	4r	4r	4r	4r
Vb/vi	4BB	4E	4c	4g	4cc
=7	=7	=7	=7	=7	=7
vi	4EE	4.F	4c	8g	4a-
.	.	.	.	16f	.
.	.	.	.	16g	.
IVb	8CC	.	8f	8a-	4dd-
V7b	8DD	8G	8e-	[8b-	.
I	4GG	4A-	4e-	8b-]	4cc
.	.	.	.	8a-	.
V	4DD	4E-	8.e-	8a-	4b-
.	.	.	.	8g	.
.	.	.	16d-	.	.
=8	=8	=8	=8	=8	=8
I;	2GG;	2AA-;	2c;	2e-;	2a-;
r	4r	4r	4r	4r	4r
I	4GG	8AA-	4e-	4a-	8cc
.	.	8BB-	.	.	8dd-
=9	=9	=9	=9	=9	=9
!!linebreak: 2
Ib	4GG	4.C	8e-	4a-	4ee-
.	.	.	8d-	.	.
Ib	8GG	.	4c	4a-	4ee-
vi7	8EE	8F	.	.	.
ii7	4AA	4BB-	4d-	8a-	4dd-
.	.	.	.	8g	.
Ib	4GG	8C	4e-	4a-	4cc
.	.	8D-	.	.	.
=10	=10	=10	=10	=10	=10
V;	2DD;	2E-;	2e-;	4a-	2b-;
.	.	.	.	4g;	.
r	4r	4r	4r	4r	4r
Vb/vi	4BB	4E	4c	4g	4cc
=11	=11	=11	=11	=11	=11
vi	4EE	8F	8c	4f	4a-
.	.	8E-	8d-	.	.
Ib	4GG	8D-	4e-	4e-	4a-
.	.	8C	.	.	.
iib	4AA	8D-	4d-	4f	4b-
.	.	8C	.	.	.
Vb/ii	4EE	8BB-	[4c	4f	4cc
.	.	8AA	.	.	.
=12	=12	=12	=12	=12	=12
ii	4AA	8BB-	8c]	2f	2dd-
.	.	8C	16B-	.	.
.	.	.	16A	.	.
iib	4AA	8D-	4B-	.	.
.	.	8E-	.	.	.
VI;	4EE;	4F;	8B-	4f;	4cc;
.	.	.	8A;	.	.
Vb/IV	4GG	4C	4A-	8e-	4ee-
.	.	.	.	8g-	.
=13	=13	=13	=13	=13	=13
IV	4CC	4D-	4A-	8f	4dd-
.	.	.	.	4a-	.
V	4DD	4E-	4e-	.	4b-
.	.	.	.	8gy	.
I	4GG	8A-	4e-	4a-	4cc
.	.	8G	.	.	.
IVb	4CC	4F	4f	4a-	4dd-
=14	=14	=14	=14	=14	=14
Ib;	2GG;	2C;	2e-;	2a-;	2ee-;
r	4r	4r	4r	4r	4r
vi	4EE	8F	4c	[4f	4a-
.	.	8E-	.	.	.
=15	=15	=15	=15	=15	=15
iib	8AA	4D-	8d-	8f]	4b-
V7d	8DD	.	8e-	8g	.
Ib	8GG	8C	8e-	[4a-	4cc
vi	8EE	8F	16f	.	.
.	.	.	16e-	.	.
viiob	4FF#	4BB-	4d-	8a-]	4dd-
.	.	.	.	8g	.
Ib	4GG	8C	4e-	4a-	4cc
.	.	8AA-	.	.	.
=16	=16	=16	=16	=16	=16
ii7b	4AA	4D-	4f	8a-	2b-
.	.	.	.	16g	.
.	.	.	.	16f	.
V	4DD	4E-	8.e-	4g	.
.	.	.	16d-	.	.
I;	4GG;	4AA-;	4c;	4e-;	4a-;
==	==	==	==	==	==
*-	*-	*-	*-	*-	*-
!!!CDT: 1685/3//-1750/7/28
!!!OCY: Deutschland
!!!AGN: chorale
!!!AST: Baroque
!!!AIN: vox
!!!YOY: 1941
!!!PPP: New York; London
!!!PPR: G. Schirmer
!!!ENC: David Huron
!!!EED: David Huron
!!!YEN: United States of America
!!!YER: 1992
!!!YEC: Copyright 1992 David Huron
!!!YEM: Rights to all derivative electronic formats reserved.
!!!YER: March 20, 1996
!!!AMT: simple quadruple
!!!EEV: 1.1
!!chor2scor: -l 2 -s 0.6 -o %b.pmx
